X:1590
L:1/16
M:2/4
K:F
 AB | c2c2 (defd) | c2c2c2 (Ac) | [EB]2[EB]2[EB]2 (GB) | AB=Bc G2(AB) | c2c2 defd | c2c2c2 (Ac) | 
 c2B2 G2E2 |{G} FEFG F2 :: cd | e2e2 efge | fgaf c2(Ac) | B2GB A2FA |{A} GFGA G2(cd) | e2e2 efge | 
 fgaf c2A2 | c2B2 G2E2 |{G} FEFG F2 :|

